public/piece/mono/R.svg

<svg xmlns="http://www.w3.org/2000/svg" viewBox="0 0 45 45"><g fill="#888" fill-rule="evenodd" stroke="#888" stroke-linejoin="round" stroke-linecap="butt" stroke-width="1.5"><path d="m9 39h27v-3h-27v3z"/><path d="m12.5 32l1.5-2.5h17l1.5 2.5h-20z"/><path d="m12 36v-4h21v4h-21z"/><path d="m14 29.5v-13h17v13h-17z" stroke-linejoin="miter"/><path d="m14 16.5l-3-2.5h23l-3 2.5h-17z"/><path d="m11 14v-5h4v2h5v-2h5v2h5v-2h4v5h-23z"/></g></svg>

<svg xmlns="http://www.w3.org/2000/svg" width="45" height="45"><g fill="#888" fill-rule="evenodd" stroke="#888" stroke-width="1.5" stroke-linecap="butt" stroke-linejoin="round"><path d="M9 39h27v-3H9v3zM12.5 32l1.5-2.5h17l1.5 2.5h-20zM12 36v-4h21v4H12z"/><path d="M14 29.5v-13h17v13H14z" stroke-linejoin="miter"/><path d="M14 16.5L11 14h23l-3 2.5H14zM11 14V9h4v2h5V9h5v2h5V9h4v5H11z"/></g></svg>
